src/images/Icons/DarkBlue/LinkedIn.svg

<svg fill="none" height="24" viewBox="0 0 24 24" width="24" xmlns="http://www.w3.org/2000/svg"><g fill="#2b3652"><path d="m7.61019 10.9823c0-.9241-.74893-1.67322-1.67277-1.67322-.92385 0-1.67277.74912-1.67277 1.67322v7.3428c0 .9241.74892 1.6732 1.67277 1.6732.92384 0 1.67277-.7491 1.67277-1.6732z"/><path d="m5.93776 7.87551c1.07019 0 1.93775-.86756 1.93775-1.93775 0-1.0702-.86756-1.93776-1.93775-1.93776-1.0702 0-1.93776.86756-1.93776 1.93776 0 1.07019.86756 1.93775 1.93776 1.93775z"/><path d="m9.8135 9.30878h2.832c.0225.00009.0447.00475.0653.0137.0207.00895.0392.02199.0546.03835.0155.01635.0274.03567.0351.05678s.011.04356.0098.066c0 0-.011 1.26769 0 1.26499s.0421.0366.0668 0c.3122-.5247.7577-.95744 1.2913-1.25421.5336-.29678 1.1362-.44703 1.7467-.43549.1993-.01854.4002-.01146.5977.02105.6723-.00929 1.3306.19196 1.8828.57556.5522.38359.9705.93029 1.1964 1.56359.2808.9669.4123 1.971.3899 2.9776v5.8032h-3.3547v-5.8032s.2646-2.2454-1.7272-2.2454-1.9158 2.2454-1.9158 2.2454v5.6274c0 .0464-.0184.0908-.0512.1236s-.0773.0512-.1236.0512h-2.9959c-.04637 0-.09084-.0184-.12362-.0512-.03279-.0328-.05121-.0772-.05121-.1236v-10.34324c.00072-.04589.01946-.08965.05217-.12185.03271-.03219.07676-.05024.12266-.05023z"/></g></svg>

<svg width="24" height="24" viewBox="0 0 24 24" fill="none" xmlns="http://www.w3.org/2000/svg">
<path d="M7.61019 10.9823C7.61019 10.0582 6.86126 9.30908 5.93742 9.30908C5.01357 9.30908 4.26465 10.0582 4.26465 10.9823V18.3251C4.26465 19.2492 5.01357 19.9983 5.93742 19.9983C6.86126 19.9983 7.61019 19.2492 7.61019 18.3251V10.9823Z" fill="#2B3652"/>
<path d="M5.93776 7.87551C7.00795 7.87551 7.87551 7.00795 7.87551 5.93776C7.87551 4.86756 7.00795 4 5.93776 4C4.86756 4 4 4.86756 4 5.93776C4 7.00795 4.86756 7.87551 5.93776 7.87551Z" fill="#2B3652"/>
<path d="M9.8135 9.30878H12.6455C12.668 9.30887 12.6902 9.31353 12.7108 9.32248C12.7315 9.33143 12.75 9.34447 12.7654 9.36083C12.7809 9.37718 12.7928 9.3965 12.8005 9.41761C12.8082 9.43872 12.8115 9.46117 12.8103 9.48361C12.8103 9.48361 12.7993 10.7513 12.8103 10.7486C12.8213 10.7459 12.8524 10.7852 12.8771 10.7486C13.1893 10.2239 13.6348 9.79116 14.1684 9.49439C14.702 9.19761 15.3046 9.04736 15.9151 9.0589C16.1144 9.04036 16.3153 9.04744 16.5128 9.07995C17.1851 9.07066 17.8434 9.27191 18.3956 9.65551C18.9478 10.0391 19.3661 10.5858 19.592 11.2191C19.8728 12.186 20.0043 13.1901 19.9819 14.1967V19.9999H16.6272V14.1967C16.6272 14.1967 16.8918 11.9513 14.9 11.9513C12.9082 11.9513 12.9842 14.1967 12.9842 14.1967V19.8241C12.9842 19.8705 12.9658 19.9149 12.933 19.9477C12.9002 19.9805 12.8557 19.9989 12.8094 19.9989H9.8135C9.76713 19.9989 9.72266 19.9805 9.68988 19.9477C9.65709 19.9149 9.63867 19.8705 9.63867 19.8241V9.48086C9.63939 9.43497 9.65813 9.39121 9.69084 9.35901C9.72355 9.32682 9.7676 9.30877 9.8135 9.30878Z" fill="#2B3652"/>
</svg>
